X:1
T:Title
%%score 1 { ( 2 5 ) | ( 3 4 ) }
L:1/8
M:4/4
K:G
V:1 treble nm="Choir Aahs"
V:2 treble nm="Grand Piano"
V:5 treble 
V:3 bass 
V:4 bass 
V:1
 z4 z2[Q:1/4=100] B2 | A2 G2 D2 EF | G2 G2 G2 GA | B2 B2 B2 B2 |[M:3/4] B6 |[M:1/4] B2 | %6
[M:4/4] ee e2 B2 A2 | G2 E2 z2 E2 | G2 G2 A2 A2 | A6 BB | A2 G2 D2 G2 | e2 d2 z2 _B2 | %12
 A2 G2 D2 G2 |[M:7/8] d-d-d- d- d3 |[M:1/4] DD |[M:4/4] DD E2 D2 DD | D2 E2 D2 DD | DD D2 G2 A2 | %18
 B4 z2 GG | DD D2 D2 D2 |[M:3/4] G6 |] %21
V:2
 z4 z2 B2 | [CA]2 G2 D2 z2 | z2 G2 G2 z2 | z2 [EG]2 [B,^DF]2 [FA]2 |[M:3/4] z2 G2 G2 |[M:1/4] z2 | %6
[M:4/4] z2 f2 [GB]2 [FA]2 | [EG]2 E2 G2 E2 | E,2 G2 A,,2 A2 | z2[K:treble] A2 A2 B2 | %10
 [CA]2 G2 D2 G2 | [Gce]2 d2 z2 _B2 | A2 G2 D2 G2 |[M:7/8][K:bass] z2 d2 e3 |[M:1/4] z2 | %15
[M:4/4][K:treble] z2 E2 D2 z2 | z2 E2 D2 z2 | z2 D2 G2 A2 | [DB]6 GA | [DB]BBB [CA]2 [CA]2 | %20
[M:3/4] [B,G]6 |] %21
V:3
 z4 z2 D2 | z2 B,2 B,2 z2 | z2 [B,D]2 [B,D]2 z2 | z2 B,2 z2 B,2 |[M:3/4] z2 [B,E]2 [B,E]2 | %5
[M:1/4] z2 |[M:4/4] z2[K:treble] [EGB]2[K:bass] [B,,,A,,]4 | [E,,E,]2 [E,G,B,]2 [E,G,B,]2 z2 | %8
 z2 [B,E]2 z2 [EG]2 | z2[K:treble] [DF]2 [DF]2 [DG]2 | z2 B,2 B,2 B,2 | %11
 z2[K:treble] [GB]2[K:bass] _B,,4 | [A,,A,]2 [G,,G,]2 [D,,D,]2 [G,,G,]2 |[M:7/8] z2 [DFA]2 [DFA]3 | %14
[M:1/4] z2 |[M:4/4] z2 [_B,^C]2 =B,2 z2 | z2 [_B,^C]2 =B,2 z2 | z2 B,2 B,2 C2 | [G,,G,]6 B,C | %19
 z DDD [D,,D,]4 |[M:3/4] [G,,D,G,]6 |] %21
V:4
 x8 | G,,6 z2 | G,,6 z2 | E,,4 B,,4 |[M:3/4] E,,6 |[M:1/4] x2 |[M:4/4] E,,4[K:treble][K:bass] z4 | %7
 x8 | x8 | D,,6[K:treble] z2 | [G,,G,]6 z2 | [G,,G,]4[K:treble][K:bass] z4 | x8 | %13
[M:7/8] D,,-D,,-D,,- D,,- D,,3 |[M:1/4] x2 |[M:4/4] G,,6 z2 | G,,6 z2 | G,,6 z2 | x8 | %19
 [D,,D,]4 z4 |[M:3/4] x6 |] %21
V:5
 x8 | x8 | G,6 z2 | E,4 z4 |[M:3/4] E,6 |[M:1/4] x2 |[M:4/4] E,4 z4 | x8 | x8 | D,6[K:treble] z2 | %10
 x8 | z4 _B,4 | x8 |[M:7/8][K:bass] D,-D,-D,- D,- D,3 |[M:1/4] x2 |[M:4/4][K:treble] G,6 z2 | %16
 G,6 z2 | G,6 z2 | x8 | x8 |[M:3/4] x6 |] %21

